azure-patterns/svg-api-management.svg

<svg xmlns="http://www.w3.org/2000/svg" viewBox="0 0 193 193">
                                
                            
  <path fill-rule="evenodd" clip-rule="evenodd" d="M79.3333 126.039H45.442C28.6867 126.039 14.9779 112.162 14.9779 94.8146C14.9779 77.4675 27.9251 63.5898 45.442 63.5898C48.4884 63.5898 51.9156 64.3608 55.7236 64.7463L62.1972 66.6737L64.1012 60.1204C70.194 40.0748 89.2341 27.7391 110.94 27.7391C137.215 27.7391 157.398 48.1701 157.398 74.769C157.398 79.0094 156.636 83.2499 155.493 87.4903L152.828 97.1276L163.11 95.9711H165.014C172.63 95.9711 178.722 102.524 178.722 109.849C178.722 117.173 173.391 122.57 166.918 123.726H133.026C131.884 114.089 126.933 105.608 120.46 99.055C112.082 90.5742 100.658 85.5628 88.8533 85.5628C80.4757 85.5628 72.0981 87.8758 65.6244 92.1162L72.8596 103.681C78.1909 100.597 83.5221 99.4405 89.6149 99.4405C97.9925 99.4405 106.37 102.524 111.701 109.078C117.794 115.246 121.221 122.955 121.221 131.436C121.221 139.917 118.175 148.398 111.701 153.795C105.609 160.348 97.9925 163.432 89.6149 163.432C83.5221 163.432 77.8101 161.505 72.8596 158.035L65.6244 169.6C72.8597 173.84 81.2373 176.924 88.8533 176.924C100.658 176.924 112.082 172.684 120.46 163.818C127.695 156.493 131.884 146.856 133.026 136.833H167.679H168.441C182.15 135.677 192.431 123.726 192.431 109.078C192.431 97.513 181.769 86.7193 169.202 84.4063C169.964 82.0934 169.964 80.9369 169.964 77.082C169.964 43.1587 146.354 16.1743 108.655 16.1743C84.6645 16.1743 63.3396 30.052 54.5812 52.4105C51.5348 52.4105 49.25 51.2541 45.8228 51.2541C21.0707 50.8686 1.26904 70.1431 1.26904 94.8146C1.26904 119.101 21.0707 138.375 44.6804 138.375H81.9989L79.3333 126.039Z" fill="#59B3D8"></path>
  <path fill-rule="evenodd" clip-rule="evenodd" d="M88.0923 109.464C99.8972 109.464 109.417 119.102 109.417 131.052C109.417 143.002 99.8972 152.639 88.0923 152.639C76.2837 152.639 66.7637 143.002 66.7637 131.052C66.7637 119.102 76.2837 109.464 88.0923 109.464Z" fill="#68217A"></path>
</svg>

<svg xmlns="http://www.w3.org/2000/svg" viewBox="0 0 193 193"><path fill-rule="evenodd" clip-rule="evenodd" d="M79.333 126.039H45.442c-16.755 0-30.464-13.877-30.464-31.224S27.925 63.59 45.442 63.59c3.046 0 6.474.77 10.282 1.156l6.473 1.928 1.904-6.554c6.093-20.045 25.133-32.38 46.839-32.38 26.275 0 46.458 20.43 46.458 47.029 0 4.24-.762 8.48-1.905 12.721l-2.665 9.638 10.282-1.157h1.904c7.616 0 13.708 6.553 13.708 13.878 0 7.324-5.331 12.721-11.804 13.877h-33.892c-1.142-9.637-6.093-18.118-12.566-24.671-8.378-8.48-19.802-13.492-31.607-13.492-8.377 0-16.755 2.313-23.229 6.553l7.236 11.565c5.33-3.084 10.662-4.24 16.755-4.24 8.378 0 16.755 3.083 22.086 9.637 6.093 6.168 9.52 13.877 9.52 22.358s-3.046 16.962-9.52 22.359c-6.092 6.553-13.708 9.637-22.086 9.637-6.093 0-11.805-1.927-16.755-5.397L65.624 169.6c7.236 4.24 15.613 7.324 23.23 7.324 11.804 0 23.228-4.24 31.606-13.106 7.235-7.325 11.424-16.962 12.566-26.985h35.415c13.709-1.156 23.99-13.107 23.99-27.755 0-11.565-10.662-22.359-23.229-24.672.762-2.313.762-3.47.762-7.324 0-33.923-23.61-60.908-61.309-60.908-23.99 0-45.315 13.878-54.074 36.236-3.046 0-5.331-1.156-8.758-1.156-24.752-.385-44.554 18.89-44.554 43.56 0 24.287 19.802 43.561 43.411 43.561H82l-2.666-12.336z" fill="#59B3D8"/><path fill-rule="evenodd" clip-rule="evenodd" d="M88.092 109.464c11.805 0 21.325 9.638 21.325 21.588 0 11.95-9.52 21.587-21.325 21.587-11.808 0-21.328-9.637-21.328-21.587s9.52-21.588 21.328-21.588z" fill="#68217A"/></svg>
